X:1
T:Ventura, 76.76 D
T:Ventura, 76.76 D
T:Daniel Brink Towner, 1899
T:Public Domain Courtesy of the Cyber Hymnal™
C:Daniel Brink Towner, 1899
Z:Public Domain
Z:Courtesy of the Cyber Hymnal™
%%score ( 1 2 ) ( 3 4 )
L:1/8
Q:1/4=97
M:6/8
K:D
V:1 treble 
V:2 treble 
V:3 bass 
V:4 bass 
V:1
 [FA] | [FA]2 [DF] (EC)[A,D] | [DF]3 [CE]2 [DF] | ([EG][DF])[EG] [Gc]2 [GB] | [FA]3- [FA]2 [FA] | %5
 [FA]2 [DF] (DC)[A,D] | [DF]3 [CE]2 [CE] | ([CE][E^G])[GB] [Bd]2 [EG] | [EA]3- [EA]2 [EA] | %9
 [EG]2 E [Gc]2 [GB] | [GB]3 [FA]2 [FA] | [EG]2 E [Gc]2 [GB] | [FA]3- [FA]2 [FA] | %13
 [Ad]2 [Ac] [Ge]2 [Fd] | [Gc]3 [GB]2 [EG] | ([DF][FA])[EG] [DF]2 [CE] | D3- D2 |] %17
V:2
 x | x3 A,2 x | x6 | x6 | x6 | x3 A,2 x | x6 | x6 | x6 | x2 E x3 | x6 | x2 E x3 | x6 | x6 | x6 | %15
 x6 | D3- D2 |] %17
V:3
 [D,D] | [D,D]2 [D,A,] ([F,A,][E,G,])[D,F,] | [A,,A,]3 [A,,A,]2 [A,,A,] | %3
 [A,,A,]2 [A,,A,] [A,,A,]2 [A,,C] | [D,D]3- [D,D]2 [D,D] | [D,D]2 [D,A,] ([F,A,][E,G,])[D,F,] | %6
 [A,,A,]3 [A,,A,]2 [A,,A,] | (A,B,)[E,E] [E,E]2 [E,D] | [A,C]3- [A,C]2 [A,C] | %9
 [A,C]2 [A,C] [A,E]2 [A,C] | [D,D]3 [D,D]2 [D,D] | [A,,C]2 [A,,C] [A,,E]2 [A,,C] | %12
 [D,D]3- [D,D]2 [D,D] | [F,D]2 [E,A,] [C,A,]2 [D,A,] | [G,E]3 [G,D]2 [G,B,] | %15
 (A,D)A, [A,,A,]2 [A,,G,] | [D,F,]3- [D,F,]2 |] %17
V:4
 x | x6 | x6 | x6 | x6 | x6 | x6 | E,2 x4 | x6 | x6 | x6 | x6 | x6 | x6 | x6 | A,2 A, x3 | x5 |] %17

